X: 20968
T: Jug Of Punch, The
R: reel
M: 4/4
K: Ddorian
G,|:A,2 DC DEFG|AG (3GGG A2 GF|E~A,3 CDEF|GcAG FDEC|
G,A,DE {G}FDDE|{G}FDED CD (3EFG|cded cAGE|1 (3FGF (3EFE DEDC:|2 FGEF DEFG||
A~d3 f~d3|efed cAGc|A^GAB cBcd|eaag addc|
d2 de fed^g|aged cAAB|cBcA cdAG|FGEF DEFG|
Adde fddf|eaed cAGc|[A3A3] B cBcd|eaag eddc|
d3 e fed^g|aged cAAB|cBcA (3Bcd AG|FGEF DEDC||

